X: 93
T: No_22_Origin_of_the_Bi'jîkiwûck'.krn
%%abc-version 2.0
%%abcx-abcm2ps-target-version 5.9.1 (29 Sep 2008)
%%abc-creator hum2abc beta
%%abcx-conversion-date 2020/08/10 18:54:57
%%gracespace 0 6 6
%%humdrum-veritas 1977626499
%%humdrum-veritas-data 3804359507
%%linebreak <none>
%%barnumbers 0
L: 1/8
M: 3/4
%%staves {1 2}
V: 1 clef=bass
V: 2 clef=bass
K: Gb
[V:1] DD [I:setbarnb 1]| 
[V:2] z2 | 
[V:1] E2ED DD | 
[V:2] G,,G,, G,,G,, G,,G,, | 
[V:1] D2A,2DD | 
[V:2] z6 | 
[V:1] D2DC A,A, | 
[V:2] z6 | 
[V:1] A,2G,2G,G, | 
[V:2] z6 | 
[V:1] G,2D,2CC | 
[V:2] z6 | 
[V:1] C2C__A, G,G, | 
[V:2] z6 | 
[V:1] G,2D,2G,G, | 
[V:2] z6 | 
[V:1] G,2G,_F, D,D, | 
[V:2] z6 | 
[V:1] [M:2/4]D,2B,,2 |]  
[V:2] [M:2/4]z4 |]  


